; generated by PrusaSlicer 2.3.0+win64 on 2021-01-17 at 21:11:49 UTC


;
;

;
;
; 

; external perimeters extrusion width = 0.25mm
; perimeters extrusion width = 0.25mm
; infill extrusion width = 0.25mm
; solid infill extrusion width = 0.25mm
; top infill extrusion width = 0.25mm
; first layer extrusion width = 0.30mm

M73 P0 R52
M201 X1250 Y1250 Z400 E5000 ; sets maximum accelerations, mm/sec^2
M203 X180 Y180 Z12 E80 ; sets maximum feedrates, mm/sec
M204 P1250 R1250 T1250 ; sets acceleration (P, T) and retract acceleration (R), mm/sec^2
M205 X8.00 Y8.00 Z2.00 E10.00 ; sets the jerk limits, mm/sec
M205 S0 T0 ; sets the minimum extruding and travel feed rate, mm/sec
M107
;TYPE:Custom
G90 ; use absolute coordinates
M83 ; extruder relative mode
M104 S170 ; set extruder temp for bed leveling
M140 S60 ; set bed temp
M109 R170 ; wait for bed leveling temp
M190 S60 ; wait for bed temp
G28 ; home all without mesh bed level
G29 ; mesh bed leveling 
M104 S215 ; set extruder temp
G92 E0.0
G1 Y-2.0 X179 F2400
G1 Z3 F720
M109 S215 ; wait for extruder temp

; intro line
G1 X170 F1000
G1 Z0.2 F720
G1 X110.0 E8.0 F600
G1 X40.0 E10.0 F400
G92 E0.0

M221 S95 ; set flow
G21 ; set units to millimeters
G90 ; use absolute coordinates
M83 ; use relative distances for extrusion
M900 K0.2 ; Filament gcode LA 1.5
; ; Filament gcode LA 1.0
;LAYER_CHANGE
;Z:0.2
;HEIGHT:0.2
;BEFORE_LAYER_CHANGE
G92 E0.0
;0.2


G1 Z0.200 F9000.000
;AFTER_LAYER_CHANGE
;0.2
G1 E-3.00000 F4200.000
G1 Z0.350 F9000.000
G1 X80.599 Y53.957
G1 Z0.200
G1 E3.00000 F2400.000
M204 S800
;TYPE:Skirt
;WIDTH:0.3
G1 F1200.000
G1 X81.796 Y52.511 E0.04015
G1 X82.781 Y51.592 E0.02879
G1 X83.896 Y50.758 E0.02976
G1 X85.062 Y50.071 E0.02892
G1 X86.331 Y49.500 E0.02976
G1 X88.128 Y48.958 E0.04012
G1 X89.505 Y48.731 E0.02983
G1 X90.852 Y48.659 E0.02883
G1 X92.846 Y48.819 E0.04277
G1 X94.792 Y49.294 E0.04282
G1 X96.641 Y50.074 E0.04288
G1 X98.335 Y51.133 E0.04271
G1 X99.849 Y52.457 E0.04299
G1 X101.124 Y53.994 E0.04269
G1 X102.145 Y55.724 E0.04293
G1 X102.862 Y57.549 E0.04192
G1 X103.186 Y58.854 E0.02875
G1 X106.668 Y76.215 E0.37849
G1 X107.210 Y86.148 E0.21266
G1 X107.177 Y86.899 E0.01607
G1 X107.051 Y87.506 E0.01324
G1 X106.781 Y88.214 E0.01619
G1 X106.398 Y88.849 E0.01586
G1 X105.987 Y89.333 E0.01358
G1 X105.423 Y89.815 E0.01586
G1 X104.244 Y90.404 E0.02818
G1 X103.290 Y90.591 E0.02077
G1 X102.202 Y90.538 E0.02329
G1 X101.281 Y90.265 E0.02052
G1 X100.459 Y89.801 E0.02019
G1 X89.909 Y79.840 E0.31015
G1 X80.604 Y68.497 E0.31362
G1 X79.556 Y66.733 E0.04385
G1 X78.832 Y64.892 E0.04230
G1 X78.501 Y63.548 E0.02959
G1 X78.320 Y62.171 E0.02967
G1 X78.291 Y60.822 E0.02885
G1 X78.489 Y58.968 E0.03985
G1 X78.818 Y57.600 E0.03007
G1 X79.270 Y56.345 E0.02852
G1 X79.855 Y55.139 E0.02867
G1 X80.579 Y53.989 E0.02904
M204 S1250
G1 X80.796 Y54.126 F9000.000
M204 S800
G1 F1200.000
G1 X81.988 Y52.682 E0.04002
G1 X82.953 Y51.783 E0.02820
G1 X84.041 Y50.970 E0.02903
G1 X85.179 Y50.299 E0.02824
G1 X86.418 Y49.742 E0.02903
G1 X88.189 Y49.207 E0.03955
G1 X89.536 Y48.986 E0.02918
G1 X90.851 Y48.916 E0.02815
G1 X92.805 Y49.073 E0.04190
G1 X94.711 Y49.538 E0.04195
G1 X96.522 Y50.302 E0.04201
G1 X98.181 Y51.340 E0.04184
G1 X99.665 Y52.636 E0.04211
G1 X100.914 Y54.142 E0.04182
G1 X101.914 Y55.837 E0.04208
G1 X102.616 Y57.621 E0.04098
G1 X102.934 Y58.903 E0.02823
G1 X106.414 Y76.255 E0.37831
G1 X106.952 Y86.145 E0.21172
G1 X106.821 Y87.378 E0.02651
G1 X106.578 Y88.043 E0.01512
G1 X106.289 Y88.554 E0.01255
G1 X105.851 Y89.105 E0.01504
M73 P1 R52
G1 X105.311 Y89.578 E0.01536
G1 X104.822 Y89.883 E0.01232
G1 X104.167 Y90.159 E0.01520
G1 X103.274 Y90.334 E0.01946
G1 X102.241 Y90.284 E0.02209
G1 X101.376 Y90.026 E0.01930
G1 X100.600 Y89.586 E0.01907
G1 X90.086 Y79.653 E0.30919
G1 X80.812 Y68.346 E0.31261
G1 X79.786 Y66.617 E0.04298
G1 X79.078 Y64.819 E0.04130
G1 X78.754 Y63.504 E0.02895
G1 X78.577 Y62.154 E0.02911
G1 X78.548 Y60.836 E0.02819
G1 X78.742 Y59.009 E0.03926
G1 X79.065 Y57.670 E0.02945
G1 X79.511 Y56.435 E0.02807
G1 X80.087 Y55.251 E0.02815
G1 X80.776 Y54.158 E0.02762
M204 S1250
; printing object planet bottom retainer 6-1.STL id:1 copy 0
G1 E-2.10000 F4200.000
;WIPE_START
G1 F7200.000
G1 X81.755 Y52.965 E-0.85500
;WIPE_END
G1 E-0.04500 F4200.000
G1 Z0.350 F9000.000
G1 X86.839 Y64.536
G1 Z0.200
G1 E3.00000 F2400.000
M204 S800
;TYPE:Perimeter
G1 F1200.000
G1 X87.160 Y64.912 E0.01055
G1 X87.781 Y65.443 E0.01748
G1 X88.461 Y65.861 E0.01705
G1 X89.233 Y66.183 E0.01789
G1 X88.997 Y66.420 E0.00716
G1 X88.755 Y66.765 E0.00900
G1 X88.577 Y67.147 E0.00900
G1 X88.468 Y67.554 E0.00900
G1 X88.431 Y67.973 E0.00900
G1 X88.468 Y68.393 E0.00900
G1 X88.577 Y68.800 E0.00900
G1 X88.755 Y69.182 E0.00900
G1 X88.997 Y69.527 E0.00900
G1 X89.294 Y69.824 E0.00900
G1 X89.640 Y70.066 E0.00900
G1 X90.021 Y70.244 E0.00900
G1 X90.428 Y70.353 E0.00900
G1 X90.848 Y70.390 E0.00900
G1 X91.268 Y70.353 E0.00900
G1 X91.674 Y70.244 E0.00900
G1 X92.056 Y70.066 E0.00900
G1 X92.401 Y69.824 E0.00900
G1 X92.699 Y69.527 E0.00900
G1 X92.941 Y69.182 E0.00900
G1 X93.119 Y68.800 E0.00900
G1 X93.228 Y68.393 E0.00900
G1 X93.265 Y67.973 E0.00900
G1 X93.228 Y67.554 E0.00900
G1 X93.119 Y67.147 E0.00900
G1 X92.941 Y66.765 E0.00900
G1 X92.699 Y66.420 E0.00900
G1 X92.462 Y66.183 E0.00717
G1 X93.233 Y65.862 E0.01785
G1 X93.914 Y65.443 E0.01710
G1 X94.536 Y64.912 E0.01748
G1 X94.857 Y64.536 E0.01055
G1 X94.793 Y65.098 E0.01208
G1 X94.835 Y65.579 E0.01031
G1 X94.960 Y66.044 E0.01031
G1 X95.164 Y66.482 E0.01031
G1 X95.440 Y66.877 E0.01031
G1 X95.783 Y67.219 E0.01037
G1 X96.194 Y67.503 E0.01068
G1 X96.613 Y67.698 E0.00988
G1 X97.079 Y67.823 E0.01031
G1 X97.214 Y67.835 E0.00288
G1 X96.712 Y68.293 E0.01453
G1 X95.925 Y68.877 E0.02094
G1 X95.083 Y69.373 E0.02090
G1 X94.193 Y69.777 E0.02090
G1 X93.264 Y70.084 E0.02090
G1 X92.309 Y70.291 E0.02090
G1 X91.337 Y70.395 E0.02090
G1 X90.359 Y70.395 E0.02090
G1 X89.387 Y70.291 E0.02090
G1 X88.431 Y70.084 E0.02090
G1 X87.503 Y69.777 E0.02090
G1 X86.613 Y69.373 E0.02090
G1 X85.771 Y68.877 E0.02090
G1 X84.989 Y68.296 E0.02082
G1 X84.499 Y67.833 E0.01442
G1 X84.619 Y67.823 E0.00259
G1 X85.101 Y67.690 E0.01068
G1 X85.520 Y67.494 E0.00988
G1 X85.915 Y67.218 E0.01031
G1 X86.256 Y66.877 E0.01031
G1 X86.532 Y66.482 E0.01031
G1 X86.736 Y66.044 E0.01031
G1 X86.861 Y65.579 E0.01031
G1 X86.903 Y65.098 E0.01031
G1 X86.849 Y64.573 E0.01129
M204 S1250
G1 E-2.10000 F4200.000
;WIPE_START
G1 F7200.000
G1 X87.160 Y64.912 E-0.25479
G1 X87.781 Y65.443 E-0.45326
G1 X88.007 Y65.582 E-0.14695
;WIPE_END
G1 E-0.04500 F4200.000
G1 Z0.350 F9000.000
G1 X89.848 Y66.067
G1 Z0.200
G1 E3.00000 F2400.000
M204 S800
G1 F1200.000
G1 X89.316 Y65.939 E0.01169
G1 X88.579 Y65.632 E0.01706
G1 X87.933 Y65.234 E0.01621
G1 X87.342 Y64.729 E0.01662
G1 X86.836 Y64.137 E0.01665
G1 X86.411 Y63.436 E0.01752
G1 X86.132 Y62.756 E0.01571
G1 X85.996 Y62.201 E0.01221
G1 X85.943 Y61.939 E0.00572
G1 X85.890 Y61.221 E0.01540
G1 X85.963 Y60.382 E0.01800
G1 X86.138 Y59.678 E0.01549
G1 X85.741 Y59.877 E0.00949
G1 X85.377 Y59.974 E0.00804
G1 X85.002 Y60.007 E0.00804
G1 X84.627 Y59.974 E0.00804
G1 X84.279 Y59.881 E0.00772
G1 X83.924 Y59.718 E0.00833
G1 X83.615 Y59.502 E0.00808
G1 X83.349 Y59.236 E0.00804
G1 X83.133 Y58.928 E0.00804
G1 X82.974 Y58.586 E0.00804
G1 X82.876 Y58.223 E0.00804
G1 X82.844 Y57.848 E0.00804
G1 X82.876 Y57.473 E0.00804
G1 X82.974 Y57.110 E0.00804
G1 X83.133 Y56.769 E0.00804
G1 X83.349 Y56.461 E0.00804
G1 X83.615 Y56.195 E0.00804
G1 X83.923 Y55.979 E0.00804
G1 X84.264 Y55.820 E0.00804
G1 X84.627 Y55.722 E0.00804
G1 X84.987 Y55.691 E0.00772
G1 X85.376 Y55.722 E0.00833
G1 X85.741 Y55.820 E0.00808
G1 X86.082 Y55.979 E0.00804
G1 X86.390 Y56.195 E0.00804
G1 X86.656 Y56.461 E0.00804
G1 X86.872 Y56.769 E0.00804
G1 X87.024 Y57.096 E0.00772
G1 X87.128 Y57.472 E0.00833
G1 X87.161 Y57.848 E0.00808
G1 X87.153 Y57.938 E0.00193
G1 X87.342 Y57.717 E0.00622
G1 X87.936 Y57.210 E0.01669
G1 X88.693 Y56.760 E0.01884
G1 X89.423 Y56.477 E0.01672
G1 X90.072 Y56.326 E0.01425
G1 X90.726 Y56.270 E0.01403
G1 X91.620 Y56.325 E0.01915
G1 X92.380 Y56.508 E0.01670
G1 X93.098 Y56.805 E0.01660
G1 X93.682 Y57.157 E0.01458
G1 X94.352 Y57.715 E0.01865
G1 X94.543 Y57.938 E0.00627
G1 X94.535 Y57.848 E0.00193
G1 X94.568 Y57.473 E0.00804
G1 X94.665 Y57.110 E0.00804
G1 X94.824 Y56.769 E0.00804
G1 X95.040 Y56.461 E0.00804
G1 X95.306 Y56.195 E0.00804
G1 X95.614 Y55.979 E0.00804
G1 X95.955 Y55.820 E0.00804
G1 X96.319 Y55.722 E0.00804
G1 X96.678 Y55.691 E0.00772
G1 X97.067 Y55.722 E0.00833
G1 X97.432 Y55.820 E0.00808
G1 X97.773 Y55.979 E0.00804
G1 X98.081 Y56.195 E0.00804
G1 X98.347 Y56.461 E0.00804
G1 X98.563 Y56.769 E0.00804
G1 X98.722 Y57.110 E0.00804
G1 X98.819 Y57.473 E0.00804
G1 X98.852 Y57.848 E0.00804
G1 X98.819 Y58.223 E0.00804
G1 X98.722 Y58.586 E0.00804
G1 X98.563 Y58.928 E0.00804
G1 X98.347 Y59.236 E0.00804
G1 X98.081 Y59.502 E0.00804
G1 X97.773 Y59.718 E0.00804
G1 X97.432 Y59.877 E0.00804
G1 X97.068 Y59.974 E0.00804
G1 X96.694 Y60.007 E0.00804
G1 X96.319 Y59.974 E0.00804
G1 X95.955 Y59.877 E0.00804
G1 X95.552 Y59.674 E0.00964
G1 X95.745 Y60.446 E0.01700
G1 X95.806 Y61.223 E0.01667
G1 X95.745 Y61.998 E0.01661
G1 X95.578 Y62.708 E0.01559
G1 X95.285 Y63.435 E0.01675
G1 X94.860 Y64.137 E0.01755
G1 X94.354 Y64.729 E0.01665
G1 X93.763 Y65.234 E0.01662
G1 X93.115 Y65.633 E0.01624
G1 X92.392 Y65.935 E0.01676
G1 X91.847 Y66.066 E0.01198
G1 X92.235 Y66.320 E0.00990
G1 X92.502 Y66.586 E0.00804
G1 X92.717 Y66.894 E0.00804
G1 X92.876 Y67.235 E0.00804
G1 X92.974 Y67.598 E0.00804
G1 X93.007 Y67.973 E0.00804
G1 X92.974 Y68.348 E0.00804
G1 X92.876 Y68.711 E0.00804
G1 X92.717 Y69.053 E0.00804
G1 X92.502 Y69.361 E0.00804
G1 X92.235 Y69.627 E0.00804
G1 X91.927 Y69.843 E0.00804
G1 X91.586 Y70.002 E0.00804
G1 X91.223 Y70.099 E0.00804
G1 X90.848 Y70.132 E0.00804
G1 X90.473 Y70.099 E0.00804
G1 X90.110 Y70.002 E0.00804
G1 X89.769 Y69.843 E0.00804
G1 X89.460 Y69.627 E0.00804
G1 X89.194 Y69.361 E0.00804
G1 X88.978 Y69.053 E0.00804
G1 X88.819 Y68.711 E0.00804
G1 X88.722 Y68.348 E0.00804
G1 X88.689 Y67.973 E0.00804
G1 X88.722 Y67.598 E0.00804
G1 X88.819 Y67.235 E0.00804
G1 X88.978 Y66.894 E0.00804
G1 X89.194 Y66.586 E0.00804
G1 X89.460 Y66.320 E0.00804
G1 X89.814 Y66.083 E0.00909
M204 S1250
G1 X90.107 Y65.865 F9000.000
M204 S800
;TYPE:External perimeter
G1 F1200.000
G1 X89.395 Y65.694 E0.01564
G1 X88.698 Y65.403 E0.01616
G1 X88.085 Y65.026 E0.01538
G1 X87.524 Y64.547 E0.01576
G1 X87.045 Y63.986 E0.01577
G1 X86.641 Y63.320 E0.01664
G1 X86.378 Y62.676 E0.01488
G1 X86.247 Y62.144 E0.01170
G1 X86.198 Y61.904 E0.00526
G1 X86.147 Y61.222 E0.01460
G1 X86.217 Y60.424 E0.01713
G1 X86.378 Y59.771 E0.01437
G1 X86.593 Y59.241 E0.01222
G1 X86.698 Y59.019 E0.00526
G1 X87.045 Y58.460 E0.01407
G1 X87.524 Y57.899 E0.01576
G1 X88.086 Y57.420 E0.01579
G1 X88.806 Y56.992 E0.01791
G1 X89.499 Y56.723 E0.01587
G1 X90.113 Y56.581 E0.01347
G1 X90.729 Y56.527 E0.01323
G1 X91.582 Y56.580 E0.01826
G1 X92.300 Y56.753 E0.01579
G1 X92.981 Y57.035 E0.01576
G1 X93.532 Y57.367 E0.01375
G1 X94.171 Y57.899 E0.01776
G1 X94.651 Y58.460 E0.01579
G1 X95.036 Y59.089 E0.01576
G1 X95.295 Y59.703 E0.01426
G1 X95.490 Y60.487 E0.01727
G1 X95.548 Y61.223 E0.01578
G1 X95.491 Y61.958 E0.01576
G1 X95.332 Y62.630 E0.01475
G1 X95.055 Y63.319 E0.01589
G1 X94.651 Y63.986 E0.01665
G1 X94.172 Y64.547 E0.01577
G1 X93.611 Y65.026 E0.01576
G1 X92.998 Y65.403 E0.01539
G1 X92.312 Y65.690 E0.01589
G1 X91.583 Y65.866 E0.01602
G1 X90.848 Y65.924 E0.01577
G1 X90.144 Y65.868 E0.01509
M204 S1250
G1 X89.949 Y66.059 F9000.000
G1 E-2.10000 F4200.000
;WIPE_START
G1 F7200.000
G1 X89.395 Y65.694 E-0.42596
G1 X88.698 Y65.403 E-0.41896
G1 X88.682 Y65.393 E-0.01008
;WIPE_END
G1 E-0.04500 F4200.000
G1 Z0.350 F9000.000
G1 X85.953 Y59.494
G1 Z0.200
G1 E3.00000 F2400.000
M204 S800
G1 F1200.000
G1 X85.652 Y59.634 E0.00708
G1 X85.332 Y59.720 E0.00708
G1 X85.002 Y59.749 E0.00708
G1 X84.672 Y59.720 E0.00708
G1 X84.366 Y59.638 E0.00678
G1 X84.052 Y59.494 E0.00737
G1 X83.781 Y59.304 E0.00709
G1 X83.546 Y59.070 E0.00708
G1 X83.356 Y58.798 E0.00708
G1 X83.216 Y58.498 E0.00708
G1 X83.131 Y58.178 E0.00708
G1 X83.102 Y57.848 E0.00708
G1 X83.131 Y57.518 E0.00708
G1 X83.216 Y57.198 E0.00708
G1 X83.356 Y56.898 E0.00708
G1 X83.546 Y56.627 E0.00708
G1 X83.781 Y56.392 E0.00708
G1 X84.052 Y56.202 E0.00708
G1 X84.352 Y56.062 E0.00708
G1 X84.672 Y55.976 E0.00708
G1 X84.988 Y55.949 E0.00678
G1 X85.332 Y55.976 E0.00737
G1 X85.652 Y56.062 E0.00709
G1 X85.953 Y56.202 E0.00708
G1 X86.224 Y56.392 E0.00708
G1 X86.458 Y56.627 E0.00708
G1 X86.648 Y56.898 E0.00708
G1 X86.782 Y57.185 E0.00678
G1 X86.874 Y57.518 E0.00737
G1 X86.903 Y57.848 E0.00709
G1 X86.874 Y58.178 E0.00708
G1 X86.788 Y58.498 E0.00708
G1 X86.648 Y58.798 E0.00708
G1 X86.458 Y59.070 E0.00708
G1 X86.224 Y59.304 E0.00708
G1 X85.983 Y59.473 E0.00628
M204 S1250
G1 X85.953 Y59.744 F9000.000
G1 E-2.10000 F4200.000
;WIPE_START
G1 F7200.000
G1 X85.652 Y59.634 E-0.20409
G1 X85.332 Y59.720 E-0.18359
G1 X85.002 Y59.749 E-0.18359
G1 X84.672 Y59.720 E-0.18359
G1 X84.498 Y59.673 E-0.10014
;WIPE_END
G1 E-0.04500 F4200.000
G1 Z0.350 F9000.000
G1 X94.822 Y58.178
G1 Z0.200
G1 E3.00000 F2400.000
M204 S800
G1 F1200.000
G1 X94.793 Y57.848 E0.00708
G1 X94.822 Y57.518 E0.00708
G1 X94.908 Y57.198 E0.00708
G1 X95.048 Y56.898 E0.00708
G1 X95.238 Y56.627 E0.00708
G1 X95.472 Y56.392 E0.00708
G1 X95.743 Y56.202 E0.00708
G1 X96.044 Y56.062 E0.00708
G1 X96.364 Y55.976 E0.00708
G1 X96.679 Y55.949 E0.00678
G1 X97.023 Y55.976 E0.00737
G1 X97.344 Y56.062 E0.00709
G1 X97.644 Y56.202 E0.00708
G1 X97.915 Y56.392 E0.00708
G1 X98.150 Y56.627 E0.00708
G1 X98.340 Y56.898 E0.00708
G1 X98.480 Y57.198 E0.00708
G1 X98.565 Y57.518 E0.00708
G1 X98.594 Y57.848 E0.00708
G1 X98.565 Y58.178 E0.00708
G1 X98.480 Y58.498 E0.00708
G1 X98.340 Y58.798 E0.00708
G1 X98.150 Y59.070 E0.00708
G1 X97.915 Y59.304 E0.00708
G1 X97.644 Y59.494 E0.00708
G1 X97.344 Y59.634 E0.00708
G1 X97.024 Y59.720 E0.00708
G1 X96.694 Y59.749 E0.00708
G1 X96.364 Y59.720 E0.00708
G1 X96.044 Y59.634 E0.00708
G1 X95.743 Y59.494 E0.00708
G1 X95.472 Y59.304 E0.00708
G1 X95.238 Y59.070 E0.00708
G1 X95.048 Y58.798 E0.00708
G1 X94.908 Y58.498 E0.00708
G1 X94.832 Y58.214 E0.00628
M204 S1250
G1 X94.587 Y58.093 F9000.000
G1 E-2.10000 F4200.000
;WIPE_START
G1 F7200.000
G1 X94.793 Y57.848 E-0.20409
G1 X94.822 Y57.518 E-0.18359
G1 X94.908 Y57.198 E-0.18359
G1 X95.048 Y56.898 E-0.18359
G1 X95.151 Y56.750 E-0.10014
;WIPE_END
G1 E-0.04500 F4200.000
G1 Z0.350 F9000.000
G1 X91.498 Y66.187
G1 Z0.200
G1 E3.00000 F2400.000
M204 S800
G1 F1200.000
G1 X91.798 Y66.327 E0.00708
G1 X92.070 Y66.517 E0.00708
G1 X92.304 Y66.752 E0.00708
G1 X92.494 Y67.023 E0.00708
G1 X92.634 Y67.323 E0.00708
G1 X92.720 Y67.643 E0.00708
G1 X92.748 Y67.973 E0.00708
G1 X92.720 Y68.303 E0.00708
G1 X92.634 Y68.623 E0.00708
G1 X92.494 Y68.923 E0.00708
G1 X92.304 Y69.195 E0.00708
G1 X92.070 Y69.429 E0.00708
G1 X91.798 Y69.619 E0.00708
G1 X91.498 Y69.759 E0.00708
G1 X91.178 Y69.845 E0.00708
G1 X90.848 Y69.874 E0.00708
G1 X90.518 Y69.845 E0.00708
G1 X90.198 Y69.759 E0.00708
G1 X89.898 Y69.619 E0.00708
G1 X89.626 Y69.429 E0.00708
G1 X89.392 Y69.195 E0.00708
G1 X89.202 Y68.923 E0.00708
G1 X89.062 Y68.623 E0.00708
G1 X88.976 Y68.303 E0.00708
G1 X88.947 Y67.973 E0.00708
G1 X88.976 Y67.643 E0.00708
G1 X89.062 Y67.323 E0.00708
G1 X89.202 Y67.023 E0.00708
G1 X89.392 Y66.752 E0.00708
G1 X89.626 Y66.517 E0.00708
G1 X89.898 Y66.327 E0.00708
G1 X90.198 Y66.187 E0.00708
G1 X90.518 Y66.101 E0.00708
G1 X90.834 Y66.074 E0.00678
G1 X91.177 Y66.101 E0.00737
G1 X91.462 Y66.178 E0.00629
M204 S1250
G1 X91.689 Y66.026 F9000.000
G1 E-2.10000 F4200.000
;WIPE_START
G1 F7200.000
G1 X91.798 Y66.327 E-0.20409
G1 X92.070 Y66.517 E-0.18359
G1 X92.304 Y66.752 E-0.18359
G1 X92.494 Y67.023 E-0.18359
G1 X92.570 Y67.187 E-0.10014
;WIPE_END
G1 E-0.04500 F4200.000
G1 Z0.350 F9000.000
G1 X95.723 Y63.037
G1 Z0.200
G1 E3.00000 F2400.000
M204 S800
;TYPE:Perimeter
G1 F1200.000
G1 X95.824 Y62.786 E0.00580
G1 X96.000 Y62.038 E0.01643
G1 X96.064 Y61.223 E0.01747
G1 X96.000 Y60.404 E0.01756
G1 X95.933 Y60.137 E0.00589
